X:1
T:Triumphant Host, CMD
T:Triumphant Host, CMD
T:Henry Coward, 1889
T:Public Domain Courtesy of the Cyber Hymnal™
C:Henry Coward, 1889
Z:Public Domain
Z:Courtesy of the Cyber Hymnal™
%%score ( 1 2 ) ( 3 4 )
L:1/8
Q:1/4=115
M:4/4
K:C
V:1 treble 
V:2 treble 
V:3 bass 
V:4 bass 
V:1
 [EG]2 | [CG]2 [B,F]2 [CE]2 [DG]2 | [Cc]2 [Ec]2 [Ec]2 G2 | [FA]2 [Cc]2 [B,F]2 [CE]2 | %4
 [B,D]6 [CE]2 | [CF]2 [CF]2 [CF]2 [^CG]2 | [Dd]2 [Gd]2 [Fd]2 [^Fc]2 | [GB]2 [Gd]2 [GA]2 [^FB]2 | %8
 G6 [FG]2 | [EG]2 [Ec]2 [Ge]2 [Fd]2 | [Ec]2 [GB]2 [FA]2 [EG]2 | [EG]2 [DF]2 [DF]2 [CE]2 | %12
 [CA]6 [FA]2 | [FA]2 [GA]2 [Fd]2 [FB]2 | [Ec]2 [Gd]2 [Ge]2 [EG]2 | [DG]2 [Ec]2 [FA]2 [FB]2 | %16
 [Ec]6 |] %17
V:2
 x2 | x8 | x6 G2 | x8 | x8 | x8 | x8 | x8 | G6 x2 | x8 | x8 | x8 | x8 | x8 | x8 | x8 | x6 |] %17
V:3
 [C,C]2 | [E,G,]2 [D,G,]2 [C,G,]2 [B,,G,]2 | [A,,A,]2 [A,,A,]2 [A,C]2 [E,C]2 | %3
 [F,C]2 [E,G,]2 [D,G,]2 [C,G,]2 | [G,,G,]6 [C,G,]2 | [A,,F,]2 [A,,F,]2 A,2 [G,A,]2 | %6
 [F,A,]2 [E,A,]2 [D,A,]2 [D,D]2 | [G,D]2 [B,,D]2 [D,C]2 [D,D]2 | [G,B,]6 [G,B,]2 | %9
 [C,C]2 [C,C]2 C2 [G,B,]2 | [A,C]2 [E,C]2 [F,C]2 [C,C]2 | [^C,A,]2 [D,A,]2 [B,,G,]2 [=C,G,]2 | %12
 F,6 [F,C]2 | [F,C]2 [E,^C]2 [D,D]2 [G,D]2 | [A,C]2 [G,B,]2 C2 [C,C]2 | %15
 [G,B,]2 [G,C]2 [G,D]2 [G,D]2 | [C,C]6 |] %17
V:4
 x2 | x8 | x8 | x8 | x8 | x4 A,2 x2 | x8 | x8 | x8 | x4 C2 x2 | x8 | x8 | F,6 x2 | x8 | x4 C2 x2 | %15
 x8 | x6 |] %17

